!!! OTL: Berkowitz417
!!! Chapter: 1
!!! Section: IV
!!! Page: 104
!!! Mode: 
!!! Encoder: DJB
**kern
*staff1
*I"Piano
=1-
*clefC4
*k[b-]
*F:
*M4/2
[1f
4f\]
8e\L
8d\J
4c\
4B-\
=2
4.A\
8B-\
4c\
4d\
2G/
4r
4c\
=3
4.F/
8G/
4A\
4B-\
4c\
4d\
4e\
4f\
=4
2f\
2G/
4r
4f\
4e\
4f\
=5
2f\
2A\
4r
4f\
4e\
4f\
=6
!!linebreak:original
2e\
4d\
[4c\
4c\]
4B-\
4A\
4G/
=7
4B-\
4d\
[2F/
4F/]
8E/L
8F/J
4A\
4G/
=8
4A\
4B-\
2c\
4r
4f\
4e\
4f\
=9
2f\
4G/
[4e\
4e\]
4d\
4c\
4B-\
=10
2B-\
2A\
4r
4G/
4B-\
4d\
=11
!!linebreak:original
2d\
[2F/
4F/]
8E/L
8F/J
4.A\
8B-\
=12
1G
1F
==
*-
